X: 573
T: Foggy Mountain Breakdown
C:Arr. Joe Carr
B: jims roots
M:4/4
L:1/8
Q: 1/4=100
K:G
V:1 
%Q:1/8=490
Bc^c|"G"[gd][gd][gd][gd] [gd][gd][gd][gd]|[gd][gd][gd][gd] [gd][gd][gd][gd] |[g2d2][g2d2] [gd]c^AB|G3G GGGG|
"Em"E2EF GFGA|BABc BAGA|"G"BAGB AGFA|G4 GGGD|
"Em"E2E2 EEEE|GFGA BAGA|"G"BAGB AGFA|GABd efge|
"D"fedf edce|dcBd cBAc|"G"Bc^cd "D"BGED|"G"G8|]
% abcbook-tune_id 6298c25dcf1b311bd73a608d


% abcbook-boost 0
% abcbook-tablature 
% abcbook-transpose 
% abcbook-lastupdated 1654178398055
% abcbook-soundfonts 
% abcbook-repeats 1


